exported-svg/cloud-snow.svg

<svg height="24" viewBox="0 0 24 24" width="24" xmlns="http://www.w3.org/2000/svg"><path d="m9.47199004 3.0135408c-3.6928393-.20794556-7.09626335 1.99599858-8.41726712 5.45074206-1.32100377 3.45474344-.25632209 7.36717464 2.63314533 9.67613144.21572625.1723856.53035307.1372511.70273868-.0784751.1723856-.2157263.13725107-.5303531-.07847518-.7027387-2.54953008-2.0373148-3.48895509-5.48946-2.32336353-8.53776309 1.16559156-3.04830306 4.16861278-4.99295966 7.4270004-4.80947828 3.25838758.18348138 6.02410778 2.4529786 6.84011308 5.61286635.0570063.22075036.2561261.37498192.4841183.37498192h1.26c2.1282594.0025046 3.9640891 1.4964457 4.3991455 3.5803663.4350565 2.0839206-.6497065 4.1875887-2.5997338 5.0416334-.2529466.1107818-.3681939.405642-.257412.6585886.1107818.2529467.405642.3681939.6585886.2574121 2.3833668-1.0438324 3.7091883-3.6149824 3.1774526-6.1619964s-2.7755275-4.372942-5.3774526-4.37600365l-.8824607-.00000024c-1.0405443-3.3846622-4.0835025-5.785653-7.64613756-5.98626671z"/></svg>

<?xml version="1.0" encoding="UTF-8"?>
<svg width="24px" height="24px" viewBox="0 0 24 24" version="1.1" xmlns="http://www.w3.org/2000/svg" xmlns:xlink="http://www.w3.org/1999/xlink">
    <!-- Generator: Sketch 55.2 (78181) - https://sketchapp.com -->
    <title>cloud-snow</title>
    <desc>Created with Sketch.</desc>
    <g id="cloud-snow" stroke="none" stroke-width="1" fill="none" fill-rule="evenodd">
        <path d="M9.47199004,3.0135408 C5.77915074,2.80559524 2.37572669,5.00953938 1.05472292,8.46428286 C-0.266280854,11.9190263 0.798400834,15.8314575 3.68786825,18.1404143 C3.9035945,18.3127999 4.21822132,18.2776654 4.39060693,18.0619392 C4.56299253,17.8462129 4.527858,17.5315861 4.31213175,17.3592005 C1.76260167,15.3218857 0.823176655,11.8697405 1.98876822,8.82143741 C3.15435978,5.77313435 6.157381,3.82847775 9.41576862,4.01195913 C12.6741562,4.19544051 15.4398764,6.46493773 16.2558817,9.62482548 C16.312888,9.84557584 16.5120078,9.9998074 16.74,9.9998074 L18,9.9998074 C20.1282594,10.002312 21.9640891,11.4962531 22.3991455,13.5801737 C22.834202,15.6640943 21.749439,17.7677624 19.7994117,18.6218071 C19.5464651,18.7325889 19.4312178,19.0274491 19.5419997,19.2803957 C19.6527815,19.5333424 19.9476417,19.6485896 20.2005883,19.5378078 C22.5839551,18.4939754 23.9097766,15.9228254 23.3780409,13.3758114 C22.8463052,10.8287974 20.6025134,9.0028694 18.0005883,8.99980775 L17.1181276,8.99980751 C16.0775833,5.61514531 13.0346251,3.21415451 9.47199004,3.0135408 Z" id="Shape" fill="#000000" fill-rule="nonzero"></path>
    </g>
</svg>
